;FLAVOR:Marlin
;TIME:1632
;Filament used: 0.411181m
;Layer height: 0.1
;MINX:98.078
;MINY:96.593
;MINZ:0.3
;MAXX:136.923
;MAXY:138.397
;MAXZ:7
;Generated with Cura_SteamEngine 4.13.1
M140 S60
M105
M190 S60
M104 S210
M105
M109 S210
M82 ;absolute extrusion mode
; Ender 3 Custom Start G-code
G92 E0 ; Reset Extruder
G28 G29 ; Home all axes
G1 Z2.0 F3000 ; Move Z Axis up little to prevent scratching of Heat Bed
G1 X0.1 Y20 Z0.3 F5000.0 ; Move to start position
G1 X0.1 Y200.0 Z0.3 F1500.0 E15 ; Draw the first line
G1 X0.4 Y200.0 Z0.3 F5000.0 ; Move to side a little
G1 X0.4 Y20 Z0.3 F1500.0 E30 ; Draw the second line
G92 E0 ; Reset Extruder
G1 Z2.0 F3000 ; Move Z Axis up little to prevent scratching of Heat Bed
G1 X5 Y20 Z0.3 F5000.0 ; Move over to prevent blob squish
G92 E0
G92 E0
G1 F2400 E-3
;LAYER_COUNT:68
;LAYER:0
M107
G0 F6000 X102.211 Y100.366 Z0.3
;TYPE:SKIRT
G1 F2400 E0
G1 F1200 X102.701 Y99.924 E0.03292
G1 X102.99 Y99.679 E0.05182
G1 X103.817 Y99.043 E0.10387
G1 X103.985 Y98.926 E0.11409
G1 X104.827 Y98.395 E0.16375
G1 X104.906 Y98.35 E0.16829
G1 X105.792 Y97.897 E0.21793
G1 X106.139 Y97.739 E0.23695
G1 X107.115 Y97.349 E0.28939
G1 X107.266 Y97.297 E0.29736
G1 X108.109 Y97.045 E0.34125
G1 X108.319 Y96.991 E0.35207
G1 X109.41 Y96.768 E0.40763
G1 X109.674 Y96.728 E0.42095
G1 X110.663 Y96.624 E0.47056
G1 X110.913 Y96.609 E0.48306
G1 X111.859 Y96.593 E0.53026
G1 X112.288 Y96.606 E0.55167
G1 X114.799 Y96.717 E0.67707
G1 X117.358 Y96.758 E0.80476
G1 X119.817 Y96.727 E0.92745
G1 X122.239 Y96.619 E1.0484
G1 X122.872 Y96.597 E1.08
G1 X123.566 Y96.594 E1.11462
G1 X123.989 Y96.606 E1.13573
G1 X125.004 Y96.682 E1.18652
G1 X125.111 Y96.695 E1.19189
G1 X126.084 Y96.858 E1.24111
G1 X126.388 Y96.923 E1.25662
G1 X127.309 Y97.162 E1.30409
G1 X127.518 Y97.226 E1.315
G1 X128.578 Y97.611 E1.37126
G1 X128.72 Y97.671 E1.37895
G1 X129.551 Y98.064 E1.42481
G1 X129.772 Y98.18 E1.43727
G1 X130.631 Y98.682 E1.4869
G1 X130.942 Y98.883 E1.50538
G1 X131.707 Y99.425 E1.55215
G1 X132.161 Y99.796 E1.5814
G1 X132.534 Y100.13 E1.60638
G1 X132.739 Y100.322 E1.62039
G1 X133.444 Y101.046 E1.67081
G1 X133.619 Y101.243 E1.68396
G1 X134.281 Y102.064 E1.73657
G1 X134.362 Y102.175 E1.74343
G1 X134.908 Y103 E1.79279
G1 X135.103 Y103.325 E1.8117
G1 X135.68 Y104.421 E1.87349
G1 X135.711 Y104.489 E1.87722
G1 X135.992 Y105.163 E1.91365
G1 X136.088 Y105.417 E1.9272
G1 X136.42 Y106.446 E1.98114
G1 X136.511 Y106.784 E1.9986
G1 X136.706 Y107.647 E2.04274
G1 X136.718 Y107.712 E2.04604
G1 X136.856 Y108.717 E2.09665
G1 X136.878 Y108.96 E2.10882
G1 X136.923 Y110.008 E2.16116
G1 X136.921 Y110.398 E2.18061
G1 X136.894 Y111.108 E2.21606
G1 X136.881 Y111.299 E2.22561
G1 X136.737 Y113.942 E2.35767
G1 X136.67 Y116.438 E2.48224
G1 X136.676 Y118.931 E2.60662
G1 X136.821 Y122.829 E2.80122
G1 X136.898 Y124.137 E2.86659
G1 X136.904 Y125.311 E2.92516
G1 X136.885 Y125.706 E2.94489
G1 X136.786 Y126.745 E2.99696
G1 X136.751 Y126.988 E3.00921
G1 X136.557 Y127.997 E3.06047
G1 X136.537 Y128.08 E3.06473
G1 X136.279 Y128.982 E3.11154
G1 X136.173 Y129.3 E3.12826
G1 X135.806 Y130.25 E3.17907
G1 X135.7 Y130.491 E3.19221
G1 X135.169 Y131.541 E3.25091
G1 X135.142 Y131.588 E3.25361
G1 X134.7 Y132.295 E3.29521
G1 X134.447 Y132.667 E3.31766
G1 X133.787 Y133.54 E3.37226
G1 X133.746 Y133.589 E3.37544
G1 X133.173 Y134.222 E3.41804
G1 X132.948 Y134.452 E3.43409
G1 X132.145 Y135.195 E3.48867
G1 X132.01 Y135.308 E3.49746
G1 X131.23 Y135.904 E3.54643
G1 X131.033 Y136.041 E3.5584
G1 X130.211 Y136.561 E3.60693
G1 X130.022 Y136.669 E3.61779
G1 X129.116 Y137.132 E3.66855
G1 X128.852 Y137.252 E3.68302
G1 X127.863 Y137.645 E3.73611
G1 X127.679 Y137.708 E3.74582
G1 X126.646 Y138.006 E3.79945
G1 X126.354 Y138.075 E3.81442
G1 X125.433 Y138.252 E3.86121
G1 X124.865 Y138.321 E3.88976
G1 X124.56 Y138.35 E3.90504
G1 X123.205 Y138.395 E3.97268
G1 X122.26 Y138.368 E4.01985
G1 X120.471 Y138.283 E4.1092
G1 X117.945 Y138.233 E4.23525
G1 X115.428 Y138.255 E4.36083
G1 X112.198 Y138.389 E4.52211
G1 X111.895 Y138.397 E4.53723
G1 X111.302 Y138.397 E4.56682
G1 X111.157 Y138.393 E4.57406
G1 X110.199 Y138.324 E4.62197
G1 X109.913 Y138.291 E4.63634
G1 X108.819 Y138.109 E4.69167
G1 X108.6 Y138.061 E4.70285
G1 X107.681 Y137.817 E4.75029
G1 X107.418 Y137.735 E4.76403
G1 X106.537 Y137.419 E4.81073
G1 X106.461 Y137.388 E4.81482
G1 X105.494 Y136.938 E4.86804
G1 X105.112 Y136.737 E4.88957
G1 X104.234 Y136.222 E4.94035
G1 X104.171 Y136.181 E4.9441
G1 X103.365 Y135.603 E4.99359
G1 X103.125 Y135.414 E5.00883
G1 X102.08 Y134.476 E5.07888
G1 X101.818 Y134.209 E5.09755
G1 X101.19 Y133.513 E5.14432
G1 X100.774 Y132.977 E5.17817
G1 X100.587 Y132.72 E5.19402
G1 X100.034 Y131.882 E5.24411
G1 X99.904 Y131.664 E5.25678
G1 X99.375 Y130.662 E5.31331
G1 X99.336 Y130.578 E5.31793
G1 X99.033 Y129.859 E5.35685
G1 X98.923 Y129.57 E5.37228
G1 X98.59 Y128.548 E5.42591
G1 X98.511 Y128.258 E5.4409
G1 X98.28 Y127.215 E5.4942
G1 X98.265 Y127.127 E5.49865
G1 X98.153 Y126.259 E5.54232
G1 X98.131 Y126.013 E5.55464
G1 X98.087 Y124.977 E5.60637
G1 X98.089 Y124.583 E5.62603
G1 X98.116 Y123.863 E5.66197
G1 X98.124 Y123.748 E5.66773
G1 X98.265 Y121.156 E5.79723
G1 X98.332 Y118.661 E5.92175
G1 X98.326 Y116.142 E6.04743
G1 X98.25 Y113.63 E6.17281
G1 X98.102 Y111.074 E6.30054
G1 X98.078 Y110.501 E6.32915
G1 X98.084 Y109.523 E6.37795
G1 X98.098 Y109.245 E6.39183
G1 X98.23 Y108.014 E6.4536
G1 X98.265 Y107.801 E6.46437
G1 X98.462 Y106.859 E6.51238
G1 X98.506 Y106.687 E6.52124
G1 X98.727 Y105.934 E6.56039
G1 X98.793 Y105.736 E6.5708
G1 X99.166 Y104.772 E6.62237
G1 X99.268 Y104.541 E6.63497
G1 X99.733 Y103.611 E6.68685
G1 X99.864 Y103.377 E6.70023
G1 X100.325 Y102.625 E6.74423
G1 X100.386 Y102.534 E6.7497
G1 X101.023 Y101.677 E6.80297
G1 X101.276 Y101.369 E6.82286
G1 X102.211 Y100.366 E6.89127
G0 F6000 X102.486 Y100.656
G1 F1200 X102.959 Y100.229 E6.92306
G1 X103.248 Y99.984 E6.94196
G1 X104.045 Y99.372 E6.99209
G1 X104.213 Y99.255 E7.00231
G1 X105.024 Y98.742 E7.05018
G1 X105.103 Y98.697 E7.05472
G1 X105.957 Y98.261 E7.10256
G1 X106.304 Y98.103 E7.12158
G1 X107.246 Y97.728 E7.17216
G1 X107.397 Y97.676 E7.18013
G1 X108.208 Y97.432 E7.22238
G1 X108.418 Y97.378 E7.2332
G1 X109.47 Y97.164 E7.28676
G1 X109.734 Y97.124 E7.30008
G1 X110.687 Y97.023 E7.34789
G1 X110.937 Y97.008 E7.36039
G1 X111.848 Y96.993 E7.40584
G1 X112.271 Y97.005 E7.42696
G1 X114.811 Y97.117 E7.5538
G1 X117.357 Y97.158 E7.68084
G1 X119.84 Y97.127 E7.80472
G1 X122.253 Y97.018 E7.92523
G1 X122.886 Y96.996 E7.95683
G1 X123.555 Y96.994 E7.99021
G1 X123.978 Y97.006 E8.01132
G1 X124.955 Y97.079 E8.0602
G1 X125.062 Y97.092 E8.06558
G1 X126 Y97.249 E8.11302
G1 X126.304 Y97.314 E8.12853
G1 X127.192 Y97.545 E8.17431
G1 X127.401 Y97.609 E8.18522
G1 X128.423 Y97.98 E8.23946
G1 X128.565 Y98.04 E8.24715
G1 X129.365 Y98.418 E8.29129
G1 X129.586 Y98.534 E8.30375
G1 X130.414 Y99.017 E8.35157
G1 X130.725 Y99.218 E8.37004
G1 X131.476 Y99.751 E8.41599
G1 X131.943 Y100.137 E8.44622
G1 X132.261 Y100.422 E8.46752
G1 X132.466 Y100.614 E8.48153
G1 X133.145 Y101.311 E8.53008
G1 X133.32 Y101.508 E8.54322
G1 X133.958 Y102.3 E8.59396
G1 X134.039 Y102.411 E8.60082
G1 X134.565 Y103.205 E8.64834
G1 X134.76 Y103.53 E8.66724
G1 X135.316 Y104.587 E8.72683
G1 X135.347 Y104.655 E8.73056
G1 X135.617 Y105.304 E8.76563
G1 X135.713 Y105.558 E8.77917
G1 X136.034 Y106.55 E8.83119
G1 X136.125 Y106.888 E8.84865
G1 X136.313 Y107.72 E8.89121
G1 X136.325 Y107.785 E8.89451
G1 X136.458 Y108.753 E8.94325
G1 X136.48 Y108.996 E8.95543
G1 X136.523 Y110.006 E9.00586
G1 X136.521 Y110.396 E9.02532
G1 X136.495 Y111.081 E9.05952
G1 X136.478 Y111.32 E9.07147
G1 X136.337 Y113.91 E9.20088
G1 X136.27 Y116.428 E9.32655
G1 X136.276 Y118.918 E9.45078
G1 X136.423 Y122.866 E9.64788
G1 X136.499 Y124.16 E9.71255
G1 X136.505 Y125.291 E9.76897
G1 X136.486 Y125.686 E9.7887
G1 X136.39 Y126.688 E9.83892
G1 X136.355 Y126.931 E9.85117
G1 X136.168 Y127.903 E9.90055
G1 X136.148 Y127.986 E9.90481
G1 X135.899 Y128.855 E9.94991
G1 X135.793 Y129.173 E9.96664
G1 X135.44 Y130.089 E10.01561
G1 X135.334 Y130.33 E10.02875
G1 X134.822 Y131.342 E10.08533
G1 X134.795 Y131.389 E10.08803
G1 X134.369 Y132.07 E10.12811
G1 X134.116 Y132.442 E10.15055
G1 X133.481 Y133.283 E10.20313
G1 X133.44 Y133.332 E10.20631
G1 X132.887 Y133.943 E10.24743
G1 X132.662 Y134.173 E10.26348
G1 X131.889 Y134.888 E10.31601
G1 X131.754 Y135.001 E10.3248
G1 X131.002 Y135.575 E10.372
G1 X130.805 Y135.712 E10.38397
G1 X130.012 Y136.213 E10.43076
G1 X129.823 Y136.321 E10.44162
G1 X128.95 Y136.768 E10.49056
G1 X128.686 Y136.888 E10.50502
G1 X127.734 Y137.266 E10.55613
G1 X127.55 Y137.329 E10.56583
G1 X126.554 Y137.617 E10.61755
G1 X126.262 Y137.686 E10.63252
G1 X125.357 Y137.859 E10.67849
G1 X124.827 Y137.922 E10.70512
G1 X124.522 Y137.951 E10.72041
G1 X123.216 Y137.995 E10.7856
G1 X122.271 Y137.968 E10.83276
G1 X122.065 Y137.96 E10.84305
G1 X120.462 Y137.883 E10.92312
G1 X117.95 Y137.833 E11.04846
G1 X115.438 Y137.855 E11.17379
G1 X112.353 Y137.984 E11.32784
G1 X111.885 Y137.997 E11.3512
G1 X111.313 Y137.997 E11.37973
G1 X111.168 Y137.993 E11.38697
G1 X110.245 Y137.927 E11.43314
G1 X109.959 Y137.894 E11.4475
G1 X108.905 Y137.718 E11.50081
G1 X108.686 Y137.67 E11.512
G1 X107.8 Y137.436 E11.55772
G1 X107.537 Y137.354 E11.57146
G1 X106.689 Y137.049 E11.61642
G1 X106.613 Y137.018 E11.62052
G1 X105.68 Y136.584 E11.67185
G1 X105.298 Y136.383 E11.69339
G1 X104.452 Y135.886 E11.74234
G1 X104.389 Y135.845 E11.74609
G1 X103.613 Y135.289 E11.79372
G1 X103.373 Y135.1 E11.80896
G1 X102.365 Y134.196 E11.87651
G1 X102.103 Y133.929 E11.89517
G1 X101.487 Y133.245 E11.94109
G1 X101.098 Y132.742 E11.97282
G1 X100.911 Y132.485 E11.98867
G1 X100.378 Y131.677 E12.03697
G1 X100.248 Y131.459 E12.04963
G1 X99.738 Y130.494 E12.10408
G1 X99.699 Y130.41 E12.1087
G1 X99.406 Y129.717 E12.14624
G1 X99.296 Y129.428 E12.16167
G1 X98.976 Y128.443 E12.21334
G1 X98.897 Y128.153 E12.22833
G1 X98.675 Y127.148 E12.27968
G1 X98.66 Y127.06 E12.28414
G1 X98.551 Y126.223 E12.32625
G1 X98.529 Y125.977 E12.33857
G1 X98.487 Y124.979 E12.3884
G1 X98.489 Y124.585 E12.40806
G1 X98.515 Y123.891 E12.44271
G1 X98.526 Y123.735 E12.45051
G1 X98.665 Y121.188 E12.57777
G1 X98.732 Y118.671 E12.70339
G1 X98.726 Y116.129 E12.83021
G1 X98.649 Y113.595 E12.95669
G1 X98.502 Y111.051 E13.08382
G1 X98.478 Y110.486 E13.11204
G1 X98.483 Y109.543 E13.15908
G1 X98.497 Y109.265 E13.17297
G1 X98.624 Y108.079 E13.23248
G1 X98.659 Y107.866 E13.24325
G1 X98.85 Y106.958 E13.28954
G1 X98.894 Y106.786 E13.2984
G1 X99.107 Y106.061 E13.33609
G1 X99.173 Y105.863 E13.34651
G1 X99.532 Y104.933 E13.39624
G1 X99.634 Y104.702 E13.40884
G1 X100.082 Y103.806 E13.45882
G1 X100.213 Y103.572 E13.4722
G1 X100.657 Y102.848 E13.51457
G1 X100.718 Y102.757 E13.52004
G1 X101.332 Y101.931 E13.57138
G1 X101.585 Y101.623 E13.59127
G1 X102.486 Y100.656 E13.65721
G0 F6000 X102.761 Y100.946
G1 F1200 X103.218 Y100.535 E13.68787
G1 X103.507 Y100.29 E13.70677
G1 X104.274 Y99.7 E13.75505
G1 X104.442 Y99.583 E13.76527
G1 X105.222 Y99.09 E13.8113
G1 X105.301 Y99.045 E13.81584
G1 X106.123 Y98.625 E13.86189
G1 X106.47 Y98.467 E13.88091
G1 X107.376 Y98.106 E13.92957
G1 X107.527 Y98.054 E13.93754
G1 X108.308 Y97.819 E13.97823
G1 X108.518 Y97.765 E13.98904
G1 X109.53 Y97.559 E14.04057
G1 X109.794 Y97.519 E14.05389
G1 X110.711 Y97.422 E14.09989
G1 X110.961 Y97.407 E14.11239
G1 X111.838 Y97.392 E14.15615
G1 X112.253 Y97.405 E14.17686
G1 X114.787 Y97.517 E14.30341
G1 X117.355 Y97.558 E14.43154
G1 X119.833 Y97.527 E14.55518
G1 X122.267 Y97.418 E14.67674
G1 X122.9 Y97.396 E14.70833
G1 X123.543 Y97.394 E14.74041
G1 X123.966 Y97.406 E14.76153
G1 X124.907 Y97.476 E14.8086
G1 X125.014 Y97.489 E14.81398
G1 X125.917 Y97.64 E14.85966
G1 X126.221 Y97.705 E14.87517
G1 X127.075 Y97.927 E14.91919
G1 X127.284 Y97.991 E14.93009
G1 X128.267 Y98.348 E14.98227
G1 X128.409 Y98.408 E14.98996
G1 X129.18 Y98.773 E15.03252
G1 X129.401 Y98.889 E15.04497
G1 X130.197 Y99.353 E15.09094
G1 X130.508 Y99.554 E15.10941
G1 X131.244 Y100.078 E15.15449
G1 X131.682 Y100.439 E15.1828
G1 X131.988 Y100.714 E15.20333
G1 X132.193 Y100.906 E15.21734
G1 X132.846 Y101.577 E15.26405
G1 X133.021 Y101.774 E15.2772
G1 X133.634 Y102.535 E15.32595
G1 X133.715 Y102.646 E15.33281
G1 X134.222 Y103.411 E15.3786
G1 X134.417 Y103.736 E15.3975
G1 X134.952 Y104.753 E15.45483
G1 X134.983 Y104.821 E15.45856
G1 X135.243 Y105.446 E15.49233
G1 X135.339 Y105.7 E15.50588
G1 X135.647 Y106.654 E15.5559
G1 X135.738 Y106.992 E15.57336
G1 X135.919 Y107.792 E15.61428
G1 X135.931 Y107.857 E15.61758
G1 X136.059 Y108.789 E15.66451
G1 X136.081 Y109.032 E15.67669
G1 X136.123 Y110.004 E15.72522
G1 X136.121 Y110.394 E15.74468
G1 X136.096 Y111.053 E15.77758
G1 X136.081 Y111.27 E15.78843
G1 X135.937 Y113.913 E15.92049
G1 X135.87 Y116.418 E16.04551
G1 X135.876 Y118.934 E16.17103
G1 X136.024 Y122.903 E16.36919
G1 X136.099 Y124.183 E16.43315
G1 X136.105 Y125.272 E16.48749
G1 X136.086 Y125.667 E16.50722
G1 X135.994 Y126.631 E16.55553
G1 X135.959 Y126.874 E16.56778
G1 X135.779 Y127.809 E16.61528
G1 X135.759 Y127.892 E16.61954
G1 X135.52 Y128.729 E16.66297
G1 X135.414 Y129.047 E16.67969
G1 X135.074 Y129.928 E16.7268
G1 X134.968 Y130.169 E16.73994
G1 X134.475 Y131.143 E16.7944
G1 X134.448 Y131.19 E16.79711
G1 X134.038 Y131.845 E16.83566
G1 X133.785 Y132.217 E16.8581
G1 X133.174 Y133.027 E16.90872
G1 X133.133 Y133.076 E16.91191
G1 X132.601 Y133.663 E16.95143
G1 X132.376 Y133.893 E16.96748
G1 X131.632 Y134.582 E17.01807
G1 X131.497 Y134.695 E17.02686
G1 X130.774 Y135.247 E17.07224
G1 X130.577 Y135.384 E17.08421
G1 X129.814 Y135.866 E17.12924
G1 X129.625 Y135.974 E17.1401
G1 X128.785 Y136.404 E17.18718
G1 X128.521 Y136.524 E17.20164
G1 X127.604 Y136.888 E17.25087
G1 X127.42 Y136.951 E17.26057
G1 X126.462 Y137.228 E17.31032
G1 X126.17 Y137.297 E17.32529
G1 X125.282 Y137.465 E17.37038
G1 X124.789 Y137.524 E17.39515
G1 X124.484 Y137.553 E17.41044
G1 X123.228 Y137.595 E17.47313
G1 X122.283 Y137.568 E17.5203
G1 X122.084 Y137.56 E17.53023
G1 X120.489 Y137.483 E17.6099
G1 X117.954 Y137.433 E17.7364
G1 X115.418 Y137.455 E17.86292
G1 X112.336 Y137.584 E18.01682
G1 X111.874 Y137.597 E18.03988
G1 X111.324 Y137.597 E18.06732
G1 X111.179 Y137.593 E18.07456
G1 X110.291 Y137.53 E18.11897
G1 X110.005 Y137.497 E18.13333
G1 X108.99 Y137.327 E18.18468
G1 X108.771 Y137.279 E18.19586
G1 X107.919 Y137.054 E18.23983
G1 X107.656 Y136.972 E18.25357
G1 X106.84 Y136.679 E18.29682
G1 X106.764 Y136.648 E18.30092
G1 X105.866 Y136.23 E18.35034
G1 X105.484 Y136.029 E18.37187
G1 X104.67 Y135.551 E18.41897
G1 X104.607 Y135.51 E18.42272
G1 X103.86 Y134.974 E18.46859
G1 X103.62 Y134.785 E18.48383
G1 X102.651 Y133.916 E18.54876
G1 X102.389 Y133.649 E18.56743
G1 X101.785 Y132.977 E18.6125
G1 X101.421 Y132.506 E18.6422
G1 X101.234 Y132.249 E18.65806
G1 X100.721 Y131.472 E18.70451
G1 X100.591 Y131.254 E18.71717
G1 X100.101 Y130.325 E18.76957
G1 X100.062 Y130.241 E18.77419
G1 X99.78 Y129.574 E18.81032
G1 X99.67 Y129.285 E18.82575
G1 X99.362 Y128.338 E18.87543
G1 X99.283 Y128.048 E18.89043
G1 X99.069 Y127.081 E18.93984
G1 X99.054 Y126.993 E18.94429
G1 X98.95 Y126.188 E18.98479
G1 X98.928 Y125.942 E18.99711
G1 X98.887 Y124.981 E19.0451
G1 X98.889 Y124.587 E19.06475
G1 X98.914 Y123.92 E19.09805
G1 X98.923 Y123.787 E19.1047
G1 X99.065 Y121.186 E19.23466
G1 X99.132 Y118.68 E19.35973
G1 X99.126 Y116.116 E19.48765
G1 X99.05 Y113.594 E19.61353
G1 X98.901 Y111.027 E19.74181
G1 X98.878 Y110.47 E19.76963
G1 X98.883 Y109.563 E19.81488
G1 X98.897 Y109.285 E19.82877
G1 X99.019 Y108.144 E19.88601
G1 X99.054 Y107.931 E19.89678
G1 X99.237 Y107.057 E19.94133
G1 X99.281 Y106.885 E19.95019
G1 X99.486 Y106.187 E19.98649
G1 X99.552 Y105.989 E19.9969
G1 X99.898 Y105.095 E20.04472
G1 X100 Y104.864 E20.05732
G1 X100.431 Y104.001 E20.10545
G1 X100.562 Y103.767 E20.11883
G1 X100.989 Y103.071 E20.15956
G1 X101.05 Y102.98 E20.16503
G1 X101.641 Y102.185 E20.21445
G1 X101.894 Y101.877 E20.23434
G1 X102.761 Y100.946 E20.29781
G1 F2400 E17.29781
;MESH:buttons_menu.STL(4)
G0 F6000 X109.094 Y108.103
G0 X109.918 Y108.809
G0 X109.851 Y110.371
G0 X110.065 Y110.972
G0 X110.473 Y111.452
